X:159
T:Greenwich Park THO4.159
M:2/4
L:1/8
Z:vmp. Peter Dunk 2010/11.from a transcription by Fynn Titford-Mock 2007
B:Thompson's Compleat Collection of 200 Favourite Country Dances Volume IV.
Q:1/4=140
K:G
d|BGBd|g2 fd|e2 cA|BdBG|a2 fd|A2 ge|fde^c|d3:|
|:D|DFAc|{c}B2 AG|cABG|{g}f2 ed|gdec|BGec|BGAF|G3:|
